WebBeautyBook/ClientApp/src/assets/svg/employees.svg

<svg viewBox="0 0 24 24" fill="#1C274C" xmlns="http://www.w3.org/2000/svg">
   <g id="SVGRepo_bgCarrier" stroke-width="0"></g>
   <g id="SVGRepo_tracerCarrier" stroke-linecap="round" stroke-linejoin="round"></g>
   <g id="SVGRepo_iconCarrier">
      <path d="M15.5 7.5C15.5 9.433 13.933 11 12 11C10.067 11 8.5 9.433 8.5 7.5C8.5 5.567 10.067 4 12 4C13.933 4 15.5 5.567 15.5 7.5Z"></path>
      <path opacity="0.4" d="M19.5 7.5C19.5 8.88071 18.3807 10 17 10C15.6193 10 14.5 8.88071 14.5 7.5C14.5 6.11929 15.6193 5 17 5C18.3807 5 19.5 6.11929 19.5 7.5Z" fill="#1C274C"></path>
      <path opacity="0.4" d="M4.5 7.5C4.5 8.88071 5.61929 10 7 10C8.38071 10 9.5 8.88071 9.5 7.5C9.5 6.11929 8.38071 5 7 5C5.61929 5 4.5 6.11929 4.5 7.5Z" fill="#1C274C"></path>
      <path d="M18 16.5C18 18.433 15.3137 20 12 20C8.68629 20 6 18.433 6 16.5C6 14.567 8.68629 13 12 13C15.3137 13 18 14.567 18 16.5Z" fill="#1C274C"></path>
      <path opacity="0.4" d="M22 16.5C22 17.8807 20.2091 19 18 19C15.7909 19 14 17.8807 14 16.5C14 15.1193 15.7909 14 18 14C20.2091 14 22 15.1193 22 16.5Z" fill="#1C274C"></path>
      <path opacity="0.4" d="M2 16.5C2 17.8807 3.79086 19 6 19C8.20914 19 10 17.8807 10 16.5C10 15.1193 8.20914 14 6 14C3.79086 14 2 15.1193 2 16.5Z" fill="#1C274C"></path>
   </g>
</svg>

<svg xmlns="http://www.w3.org/2000/svg" viewBox="0 0 24 24" fill="#1C274C" xmlns:v="https://vecta.io/nano"><path d="M15.5 7.5a3.5 3.5 0 1 1-7 0 3.5 3.5 0 1 1 7 0z"/><path opacity=".4" d="M19.5 7.5a2.5 2.5 0 1 1-5 0 2.5 2.5 0 1 1 5 0zm-15 0a2.5 2.5 0 1 0 5 0 2.5 2.5 0 1 0-5 0z"/><path d="M18 16.5c0 1.933-2.686 3.5-6 3.5s-6-1.567-6-3.5S8.686 13 12 13s6 1.567 6 3.5z"/><path opacity=".4" d="M22 16.5c0 1.381-1.791 2.5-4 2.5s-4-1.119-4-2.5 1.791-2.5 4-2.5 4 1.119 4 2.5zm-20 0C2 17.881 3.791 19 6 19s4-1.119 4-2.5S8.209 14 6 14s-4 1.119-4 2.5z"/></svg>
